X: 38
T: POLKAS: Cobbler's Set
T: Toormore No. 1 / Tuar Mór No. 1
C: C: Trad.; S: De Danann; Johnny O'Leary
C: Set Leaders: Sophie, Anton, Tania
Z: Anton Zille ed., Oleg Naumov arr.; Northcregg / Musicalbison / Nutty Nessie / jr347 at The Session
N: https://thesession.org/members/26966/sets/99393
R: Polka
M: 2/4
L: 1/8
Q: 1/4=140
K: Amix
|:"A5"ef/e/ dB|BA "G"B/c/d|"A5"ef/e/ dB|B"G"A A2|
"A5"ef/e/ dB|B"G"A B/c/d|"(E5)"af/a/ gc|1 "D"ed d2:|2 "G"ed "(A5)"de||
K: Dmaj
|:"D"f>e fA|"D/F#"B/c/d ef|"G"g>f ga|"A"ba f/g/a|
"D"f>e fA|"D/F#"B/c/d ef|"G"af/a/ "A"gc|1 e"D"d de:|2 e"D"d d2||
T: Maids of Ardagh / Toormore No. 2 / Tuar Mór No. 2
K: Dmaj
|:"D"F>A BA|de f2|"G"fe/f/ gc|"A"ed BA|
"D"F>A BA|de f2|"G"fe/f/ "A"gc|e"D"d d2:||
K: Amix
|:"A"ef/e/ ce|fe a2|ef/e/ ce|f"G"e c/B/A|
"A"ef/e/ ce|fe a2|"G"ef/e/ dB|"(E5)"BA A2:||
T: Cobbler's
K: Bmin
B>c|:"Bm"dB bB|de f>e|dB bB|"A"c/B/A/c/ ef/e/|
"Bm (G)"dB bB|de f>e|"A (F#m)"d>e f/e/d|1 "Bm (F#m)"B2 B>c:|2 "Bm (F#m)"B2 B2||
|:"Bm"fe/f/ ba|fe f>e|"A"dB bB|c/B/A/c/ ed/e/|
"G" fe/f/ ba|"Em" fe f>e|"F#m" d>e f/e/d|1 "Bm (F#m)"B2 B2:|2 "F#m (Esus4)"B2||
T: Johnny I Do Miss You
K: Dmaj
d>B|:"D"AF ED|F2 A,F|"G"GB AF|"A"E2 d>B|
"D"AF ED|F2 A,F|"G"GE "A"FE|1 "D"D2 d>B:|2 "D"D2 D>E||
"D"FA A/B/A/G/|FA A>G|FA Bc|"G"d2 dA|
"D"FA A/B/A/G/|FA de|"G"fe ed|"A"e2 eA|
"D"FA A/B/A/G/|FA A>G|FA Bc|"G"d2 d>B|
"D5 (Bm)"AF ED|"D (Bm)"F2 A,F|"G"GE "A"FE|"D"D2||

